_inc/systems/logos/naomigd.svg

<svg xmlns="http://www.w3.org/2000/svg" viewBox="0 0 3839 1232.6"><path d="M838.8 511.2h611.1v120.1H838.8zM3717.9 48.6H3838v722.6h-120.1zm-254.7 0-425.8 493.1-425.7-493.1v722.6h120.1V371.3l305.6 354.2 305.8-354.2v399.9h120zm-2872.4.1h120.1V649H590.8zM0 164.1h120.1v607.2H0z" class="st0" style="fill:#fff"/><path d="M710.8 616.1v155.1L0 188.9V33.7zM2078.9 0c-230.6 0-417.6 186.9-417.6 417.6s186.9 417.6 417.6 417.6c230.6 0 417.6-186.9 417.6-417.6S2309.6 0 2078.9 0m0 120.1c-164.4 0-297.5 133.2-297.5 297.5s133.2 297.5 297.5 297.5 297.5-133.2 297.5-297.5-133.2-297.5-297.5-297.5m0 573.4c-152.2 0-276-123.8-276-276s123.8-276 276-276 276 123.8 276 276c.1 152.2-123.8 276-276 276m0 21.6c-164.4 0-297.5-133.2-297.5-297.5s133.2-297.5 297.5-297.5 297.5 133.2 297.5 297.5c0 164.2-133.2 297.5-297.5 297.5m-1104 56.1 267.4-488.7 267.5 488.7h136.9L1242.3 32.5 838.1 771.2zm-439.1 246.1h-93.1v104.9h89.9c7.6 0 15-.3 22.5-.7 8.9-.3 23.2-.7 30.6-6.7 9.9-8.2 9.5-32.1 9.5-43.9.1-53.6-9.5-53.6-59.4-53.6m811.2 16.6c-3.5-11.5-10.8-14.3-21.9-15.9-15-2-30.2-1.6-45.1-1.6h-40.6c-51.5 0-50.5 10.2-50.5 59.5 0 12-1.3 32.4 9.5 41 12 9.5 56.6 7.6 71.2 7.6 10.2 0 20.7-.3 30.9-.3 11.7 0 30.9 0 40.6-7.3 10.5-7.9 9.5-29.3 9.5-41 0-11.6 0-30.9-3.6-42m-357.6-16.6h-108v52.1h90.9c4.8 0 9.5-.3 14.3-.3 23.2-.7 29.6-1.3 29.6-26.7-.1-21.5-5.5-25.1-26.8-25.1" class="st0" style="fill:#fff"/><path d="M0 907.9v324.7h3839V907.9zm327.5 182.5c-.3 9.2-.3 18.4-1 27.3-1 16.8-2 30.9-14.6 42.9-7.6 7.3-17.4 10.8-27.6 13-31.7 6.7-69.2 5.7-101.7 5.7-14 0-28 0-41.9-.7-21.9-.7-52.1-1.3-70.9-14-8.6-5.7-13.3-12.7-16.8-22.5-6.6-19.7-5.7-54.9-5.7-75.3 0-13.3.3-26.7 1.3-40.1 2.3-31.4 12.4-53.7 45.4-60 30.9-6.1 69-5.7 100.1-5.7 15.6 0 30.9 0 46 1 22.9 1 59.8 2.3 76 21 12 13.7 11.4 37.5 11.7 54.6h-64.5c0-6.1.3-13.7-5.1-17.8-3.1-2.3-6.1-3.1-9.9-3.8-5.7-1-12.1-1-17.8-1.3-14-.7-28-.7-41.9-.7-11.5 0-23.2.3-34.7.7-9.2.3-25.5.7-33 6.7-10.5 8.2-8.9 36.2-8.9 48 0 12.4-.7 29.3 2.5 41.3 1.3 4.8 2.6 7.6 6.4 11.2 7.6 7 27 6.4 36.5 6.4 10.2 0 20.4.3 30.6.3 11.7 0 23.5-.3 35.3-.3 9.5 0 34 1.3 39.8-8.9 2.3-4.1 2.3-9.9 2.3-14.3v-6.7h-84.8v-42.3H328c0 2 .3 4.1.3 6.1zm330.1 18.1c-1.3 17.1-6.1 37.8-19.1 49.8-21.9 20-72.8 17.8-100.4 17.8h-159V964.2h158c12.1 0 24.2 0 36.2.3 33 .7 67.4 3.5 79.4 39.8 6.6 20 6.1 42.3 6.1 63 0 13.6-.4 27.6-1.2 41.2m130.6 13H682.4v-43.2h105.9v43.2Zm290.2 20.1v34.7h-63.6c0-12.7.7-26.1-2-38.5-2.8-14-12.7-15.3-25.5-15.3H881.2v53.7h-64.6V964.3h156c11.4 0 23.2.3 34.7.3 24.2.3 51.1-2.3 65.4 21.6 8.2 13.7 7.6 32.7 7.6 48 0 14 .3 30.6-7 42.9-7 12-19.4 15-32.4 17.1 32.4 2.3 37.5 17.8 37.5 47.4m335.7-34.1c-1 19.7-2.8 44.2-20 57.2-8.9 7-19.1 9.5-30.2 11.2-30.9 4.4-63.3 3.5-94.4 3.5-16.6 0-33.4 0-49.8-.3-22.2-.3-55.9-.3-74.7-14.3-17.1-12.4-19.1-37.8-20-57.2-1-12.4-1-24.8-1-37.2s0-24.8 1-37.2c1.3-19.4 3.1-44.2 20-57.2 8.9-6.7 19.4-9.9 30.2-11.5 29.9-4.8 64.3-3.5 94.4-3.5 16.8 0 33.4.3 50.2.7 22.2.3 55.6.3 74.3 14.3 17.1 12.7 18.7 37.8 20 57.2 1 12.4 1 24.8 1 37.2-.1 12.4-.1 24.8-1 37.1m412.2 68.7h-63.5l1.6-158.6h-10.8l-79.7 158.6h-53.7l-79.7-158.6H1529l1.6 158.6H1467V964.3h116.9l63 137.6 63.3-137.6h116.3zm389.2-13.6c-15.3 16.6-48.6 15.9-69.2 16.3-16.6.7-33 .7-49.6.7-27.6 0-61 1-88-5.1-10.2-2.3-19.1-6.4-26.3-13.7-10.8-10.5-12.1-24.2-12.1-38.5 0-5.4.3-10.8.7-16.3h62.3c0 4.8 0 9.2 1.6 13.7 1 2.8 2.3 4.8 4.8 6.7 6.1 4.8 24.2 4.1 31.1 4.1 9.2 0 18.1.3 27.3.3 11.5 0 22.5-.3 34-.3 7.9 0 28 1 33.4-6.7 2.2-3.5 2.2-8.2 2.2-12.1 0-16.3-12.7-15.6-25.8-15.9-34-1-68-2.8-102.1-4.1-18.4-.7-41.9-1.3-55.3-16.3-11.2-12.4-12-30.2-12-46 0-37.8 9.9-61.7 50.5-65.8 27.3-2.8 55.6-2.5 83.2-2.5 26.7 0 55-.7 81 5.7 28.9 7.4 35 26.3 35 54.1v10.2h-62.6v-3.1c0-6.1-.6-10.5-6.1-14-6.1-4.1-20.4-3.8-27.3-3.8h-54.9c-6.6 0-25.5-.3-31.1 3.8-4.1 2.8-5.1 7.9-5.1 12.7 0 3.8 1 8.9 4.1 11.5 2.2 2 5.4 2.5 8.2 2.8 7.4 1.3 15 1.3 22.2 1.6 14.3.7 28.6 1.3 42.9 1.6 24.5.7 59.4.3 83.3 6.7 7.6 2.3 14.3 5.4 20.4 10.8 13 11.5 13.7 33.4 13.7 49.3-.1 17.6-1.7 37.9-14.4 51.6m220.3-61.3v75H2369v-75l-121.7-137h85.2l68.9 85.2 66.1-85.2h83.9zm378.9 61.3c-15.3 16.6-48.6 15.9-69.2 16.3-16.6.7-33 .7-49.6.7-27.6 0-61 1-88-5.1-10.2-2.3-19.1-6.4-26.3-13.7-10.8-10.5-12.1-24.2-12.1-38.5 0-5.4.3-10.8.7-16.3h62.3c0 4.8 0 9.2 1.6 13.7 1 2.8 2.3 4.8 4.8 6.7 6.1 4.8 24.2 4.1 31.1 4.1 9.2 0 18.1.3 27.3.3 11.5 0 22.5-.3 34-.3 7.9 0 28 1 33.4-6.7 2.2-3.5 2.2-8.2 2.2-12.1 0-16.3-12.7-15.6-25.8-15.9-34-1-68-2.8-102.1-4.1-18.4-.7-41.9-1.3-55.3-16.3-11.2-12.4-12-30.2-12-46 0-37.8 9.9-61.7 50.5-65.8 27.3-2.8 55.6-2.5 83.2-2.5 26.7 0 55-.7 81 5.7 28.9 7.4 35 26.3 35 54.1v10.2h-62.6v-3.1c0-6.1-.7-10.5-6.1-14-6.1-4.1-20.4-3.8-27.3-3.8h-54.9c-6.6 0-25.5-.3-31.1 3.8-4.1 2.8-5.1 7.9-5.1 12.7 0 3.8 1 8.9 4.1 11.5 2.2 2 5.4 2.5 8.2 2.8 7.4 1.3 15 1.3 22.2 1.6 14.3.7 28.6 1.3 42.9 1.6 24.5.7 59.4.3 83.3 6.7 7.6 2.3 14.3 5.4 20.4 10.8 13 11.5 13.7 33.4 13.7 49.3-.1 17.6-1.7 37.9-14.4 51.6m302.3-144.3h-94.4v158h-67.7v-158h-94.4v-54.1H3117zm268.6 157.9h-235.8V964.3h234.6v49.9h-171v30.9h162.4v46.4h-162.4v34h172.3v50.7zm406.3 0h-63.6l1.6-158.6h-10.8l-79.7 158.6h-53.7l-79.7-158.6h-11.5l1.6 158.6h-63.6V964.3h116.9l63 137.6 63.3-137.6H3792v211.9z" class="st0" style="fill:#fff"/></svg>

<?xml version="1.0" encoding="utf-8"?>
<svg version="1.1" viewBox="0 0 3839 1232.6" xmlns="http://www.w3.org/2000/svg">
  <rect x="838.8" y="511.2" class="st0" width="611.1" height="120.1" style="fill: rgb(255, 255, 255);"/>
  <rect x="3717.9" y="48.6" class="st0" width="120.1" height="722.6" style="fill: rgb(255, 255, 255);"/>
  <polygon class="st0" points="3463.2 48.6 3037.4 541.7 2611.7 48.6 2611.7 771.2 2731.8 771.2 2731.8 371.3 3037.4 725.5 3343.2 371.3 3343.2 771.2 3463.2 771.2" style="fill: rgb(255, 255, 255);"/>
  <rect x="590.8" y="48.7" class="st0" width="120.1" height="600.3" style="fill: rgb(255, 255, 255);"/>
  <rect y="164.1" class="st0" width="120.1" height="607.2" style="fill: rgb(255, 255, 255);"/>
  <polygon class="st0" points="710.8 616.1 710.8 771.2 0 188.9 0 33.7" style="fill: rgb(255, 255, 255);"/>
  <path class="st0" d="M 2078.9 0 C 1848.3 0 1661.3 186.9 1661.3 417.6 C 1661.3 648.3 1848.2 835.2 2078.9 835.2 C 2309.5 835.2 2496.5 648.3 2496.5 417.6 C 2496.5 186.9 2309.6 0 2078.9 0 Z M 2078.9 120.1 C 1914.5 120.1 1781.4 253.3 1781.4 417.6 C 1781.4 581.9 1914.6 715.1 2078.9 715.1 C 2243.2 715.1 2376.4 581.9 2376.4 417.6 C 2376.4 253.3 2243.2 120.1 2078.9 120.1 Z M 2078.9 693.5 C 1926.7 693.5 1802.9 569.7 1802.9 417.5 C 1802.9 265.3 1926.7 141.5 2078.9 141.5 C 2231.1 141.5 2354.9 265.3 2354.9 417.5 C 2355 569.7 2231.1 693.5 2078.9 693.5 Z M 2078.9 715.1 C 1914.5 715.1 1781.4 581.9 1781.4 417.6 C 1781.4 253.3 1914.6 120.1 2078.9 120.1 C 2243.2 120.1 2376.4 253.3 2376.4 417.6 C 2376.4 581.8 2243.2 715.1 2078.9 715.1 Z" style="fill: rgb(255, 255, 255);"/>
  <polygon class="st0" points="974.9 771.2 1242.3 282.5 1509.8 771.2 1646.7 771.2 1242.3 32.5 838.1 771.2" style="fill: rgb(255, 255, 255);"/>
  <path class="st0" d="M 535.8 1017.3 L 442.7 1017.3 L 442.7 1122.2 L 532.6 1122.2 C 540.2 1122.2 547.6 1121.9 555.1 1121.5 C 564 1121.2 578.3 1120.8 585.7 1114.8 C 595.6 1106.6 595.2 1082.7 595.2 1070.9 C 595.3 1017.3 585.7 1017.3 535.8 1017.3 Z" style="fill: rgb(255, 255, 255);"/>
  <path class="st0" d="M 1347 1033.9 C 1343.5 1022.4 1336.2 1019.6 1325.1 1018 C 1310.1 1016 1294.9 1016.4 1280 1016.4 L 1239.4 1016.4 C 1187.9 1016.4 1188.9 1026.6 1188.9 1075.9 C 1188.9 1087.9 1187.6 1108.3 1198.4 1116.9 C 1210.4 1126.4 1255 1124.5 1269.6 1124.5 C 1279.8 1124.5 1290.3 1124.2 1300.5 1124.2 C 1312.2 1124.2 1331.4 1124.2 1341.1 1116.9 C 1351.6 1109 1350.6 1087.6 1350.6 1075.9 C 1350.6 1064.3 1350.6 1045 1347 1033.9 Z" style="fill: rgb(255, 255, 255);"/>
  <path class="st0" d="M 989.4 1017.3 L 881.4 1017.3 L 881.4 1069.4 L 972.3 1069.4 C 977.1 1069.4 981.8 1069.1 986.6 1069.1 C 1009.8 1068.4 1016.2 1067.8 1016.2 1042.4 C 1016.1 1020.9 1010.7 1017.3 989.4 1017.3 Z" style="fill: rgb(255, 255, 255);"/>
  <path class="st0" d="M 0 907.9 L 0 1232.6 L 3839 1232.6 L 3839 907.9 L 0 907.9 L 0 907.9 Z M 327.5 1090.4 C 327.2 1099.6 327.2 1108.8 326.5 1117.7 C 325.5 1134.5 324.5 1148.6 311.9 1160.6 C 304.3 1167.9 294.5 1171.4 284.3 1173.6 C 252.6 1180.3 215.1 1179.3 182.6 1179.3 C 168.6 1179.3 154.6 1179.3 140.7 1178.6 C 118.8 1177.9 88.6 1177.3 69.8 1164.6 C 61.2 1158.9 56.5 1151.9 53 1142.1 C 46.4 1122.4 47.3 1087.2 47.3 1066.8 C 47.3 1053.5 47.6 1040.1 48.6 1026.7 C 50.9 995.3 61 973 94 966.7 C 124.9 960.6 163 961 194.1 961 C 209.7 961 225 961 240.1 962 C 263 963 299.9 964.3 316.1 983 C 328.1 996.7 327.5 1020.5 327.8 1037.6 L 263.3 1037.6 C 263.3 1031.5 263.6 1023.9 258.2 1019.8 C 255.1 1017.5 252.1 1016.7 248.3 1016 C 242.6 1015 236.2 1015 230.5 1014.7 C 216.5 1014 202.5 1014 188.6 1014 C 177.1 1014 165.4 1014.3 153.9 1014.7 C 144.7 1015 128.4 1015.4 120.9 1021.4 C 110.4 1029.6 112 1057.6 112 1069.4 C 112 1081.8 111.3 1098.7 114.5 1110.7 C 115.8 1115.5 117.1 1118.3 120.9 1121.9 C 128.5 1128.9 147.9 1128.3 157.4 1128.3 C 167.6 1128.3 177.8 1128.6 188 1128.6 C 199.7 1128.6 211.5 1128.3 223.3 1128.3 C 232.8 1128.3 257.3 1129.6 263.1 1119.4 C 265.4 1115.3 265.4 1109.5 265.4 1105.1 L 265.4 1098.4 L 180.6 1098.4 L 180.6 1056.1 L 328 1056.1 C 328 1058.1 328.3 1060.2 328.3 1062.2 L 327.5 1090.4 Z M 657.6 1108.5 C 656.3 1125.6 651.5 1146.3 638.5 1158.3 C 616.6 1178.3 565.7 1176.1 538.1 1176.1 L 379.1 1176.1 L 379.1 964.2 L 537.1 964.2 C 549.2 964.2 561.3 964.2 573.3 964.5 C 606.3 965.2 640.7 968 652.7 1004.3 C 659.3 1024.3 658.8 1046.6 658.8 1067.3 C 658.8 1080.9 658.4 1094.9 657.6 1108.5 Z M 788.2 1121.5 L 682.4 1121.5 L 682.4 1078.3 L 788.3 1078.3 L 788.3 1121.5 Z M 1078.4 1141.6 L 1078.4 1176.3 L 1014.8 1176.3 C 1014.8 1163.6 1015.5 1150.2 1012.8 1137.8 C 1010 1123.8 1000.1 1122.5 987.3 1122.5 L 881.2 1122.5 L 881.2 1176.2 L 816.6 1176.2 L 816.6 964.3 L 972.6 964.3 C 984 964.3 995.8 964.6 1007.3 964.6 C 1031.5 964.9 1058.4 962.3 1072.7 986.2 C 1080.9 999.9 1080.3 1018.9 1080.3 1034.2 C 1080.3 1048.2 1080.6 1064.8 1073.3 1077.1 C 1066.3 1089.1 1053.9 1092.1 1040.9 1094.2 C 1073.3 1096.5 1078.4 1112 1078.4 1141.6 Z M 1414.1 1107.5 C 1413.1 1127.2 1411.3 1151.7 1394.1 1164.7 C 1385.2 1171.7 1375 1174.2 1363.9 1175.9 C 1333 1180.3 1300.6 1179.4 1269.5 1179.4 C 1252.9 1179.4 1236.1 1179.4 1219.7 1179.1 C 1197.5 1178.8 1163.8 1178.8 1145 1164.8 C 1127.9 1152.4 1125.9 1127 1125 1107.6 C 1124 1095.2 1124 1082.8 1124 1070.4 C 1124 1058 1124 1045.6 1125 1033.2 C 1126.3 1013.8 1128.1 989 1145 976 C 1153.9 969.3 1164.4 966.1 1175.2 964.5 C 1205.1 959.7 1239.5 961 1269.6 961 C 1286.4 961 1303 961.3 1319.8 961.7 C 1342 962 1375.4 962 1394.1 976 C 1411.2 988.7 1412.8 1013.8 1414.1 1033.2 C 1415.1 1045.6 1415.1 1058 1415.1 1070.4 C 1415 1082.8 1415 1095.2 1414.1 1107.5 Z M 1826.3 1176.2 L 1762.8 1176.2 L 1764.4 1017.6 L 1753.6 1017.6 L 1673.9 1176.2 L 1620.2 1176.2 L 1540.5 1017.6 L 1529 1017.6 L 1530.6 1176.2 L 1467 1176.2 L 1467 964.3 L 1583.9 964.3 L 1646.9 1101.9 L 1710.2 964.3 L 1826.5 964.3 L 1826.3 1176.2 L 1826.3 1176.2 Z M 2215.5 1162.6 C 2200.2 1179.2 2166.9 1178.5 2146.3 1178.9 C 2129.7 1179.6 2113.3 1179.6 2096.7 1179.6 C 2069.1 1179.6 2035.7 1180.6 2008.7 1174.5 C 1998.5 1172.2 1989.6 1168.1 1982.4 1160.8 C 1971.6 1150.3 1970.3 1136.6 1970.3 1122.3 C 1970.3 1116.9 1970.6 1111.5 1971 1106 L 2033.3 1106 C 2033.3 1110.8 2033.3 1115.2 2034.9 1119.7 C 2035.9 1122.5 2037.2 1124.5 2039.7 1126.4 C 2045.8 1131.2 2063.9 1130.5 2070.8 1130.5 C 2080 1130.5 2088.9 1130.8 2098.1 1130.8 C 2109.6 1130.8 2120.6 1130.5 2132.1 1130.5 C 2140 1130.5 2160.1 1131.5 2165.5 1123.8 C 2167.7 1120.3 2167.7 1115.6 2167.7 1111.7 C 2167.7 1095.4 2155 1096.1 2141.9 1095.8 C 2107.9 1094.8 2073.9 1093 2039.8 1091.7 C 2021.4 1091 1997.9 1090.4 1984.5 1075.4 C 1973.3 1063 1972.5 1045.2 1972.5 1029.4 C 1972.5 991.6 1982.4 967.7 2023 963.6 C 2050.3 960.8 2078.6 961.1 2106.2 961.1 C 2132.9 961.1 2161.2 960.4 2187.2 966.8 C 2216.1 974.2 2222.2 993.1 2222.2 1020.9 L 2222.2 1031.1 L 2159.6 1031.1 L 2159.6 1028 C 2159.6 1021.9 2159 1017.5 2153.5 1014 C 2147.4 1009.9 2133.1 1010.2 2126.2 1010.2 L 2071.3 1010.2 C 2064.7 1010.2 2045.8 1009.9 2040.2 1014 C 2036.1 1016.8 2035.1 1021.9 2035.1 1026.7 C 2035.1 1030.5 2036.1 1035.6 2039.2 1038.2 C 2041.4 1040.2 2044.6 1040.7 2047.4 1041 C 2054.8 1042.3 2062.4 1042.3 2069.6 1042.6 C 2083.9 1043.3 2098.2 1043.9 2112.5 1044.2 C 2137 1044.9 2171.9 1044.5 2195.8 1050.9 C 2203.4 1053.2 2210.1 1056.3 2216.2 1061.7 C 2229.2 1073.2 2229.9 1095.1 2229.9 1111 C 2229.8 1128.6 2228.2 1148.9 2215.5 1162.6 Z M 2435.8 1101.3 L 2435.8 1176.3 L 2369 1176.3 L 2369 1101.3 L 2247.3 964.3 L 2332.5 964.3 L 2401.4 1049.5 L 2467.5 964.3 L 2551.4 964.3 L 2435.8 1101.3 Z M 2814.7 1162.6 C 2799.4 1179.2 2766.1 1178.5 2745.5 1178.9 C 2728.9 1179.6 2712.5 1179.6 2695.9 1179.6 C 2668.3 1179.6 2634.9 1180.6 2607.9 1174.5 C 2597.7 1172.2 2588.8 1168.1 2581.6 1160.8 C 2570.8 1150.3 2569.5 1136.6 2569.5 1122.3 C 2569.5 1116.9 2569.8 1111.5 2570.2 1106 L 2632.5 1106 C 2632.5 1110.8 2632.5 1115.2 2634.1 1119.7 C 2635.1 1122.5 2636.4 1124.5 2638.9 1126.4 C 2645 1131.2 2663.1 1130.5 2670 1130.5 C 2679.2 1130.5 2688.1 1130.8 2697.3 1130.8 C 2708.8 1130.8 2719.8 1130.5 2731.3 1130.5 C 2739.2 1130.5 2759.3 1131.5 2764.7 1123.8 C 2766.9 1120.3 2766.9 1115.6 2766.9 1111.7 C 2766.9 1095.4 2754.2 1096.1 2741.1 1095.8 C 2707.1 1094.8 2673.1 1093 2639 1091.7 C 2620.6 1091 2597.1 1090.4 2583.7 1075.4 C 2572.5 1063 2571.7 1045.2 2571.7 1029.4 C 2571.7 991.6 2581.6 967.7 2622.2 963.6 C 2649.5 960.8 2677.8 961.1 2705.4 961.1 C 2732.1 961.1 2760.4 960.4 2786.4 966.8 C 2815.3 974.2 2821.4 993.1 2821.4 1020.9 L 2821.4 1031.1 L 2758.8 1031.1 L 2758.8 1028 C 2758.8 1021.9 2758.1 1017.5 2752.7 1014 C 2746.6 1009.9 2732.3 1010.2 2725.4 1010.2 L 2670.5 1010.2 C 2663.9 1010.2 2645 1009.9 2639.4 1014 C 2635.3 1016.8 2634.3 1021.9 2634.3 1026.7 C 2634.3 1030.5 2635.3 1035.6 2638.4 1038.2 C 2640.6 1040.2 2643.8 1040.7 2646.6 1041 C 2654 1042.3 2661.6 1042.3 2668.8 1042.6 C 2683.1 1043.3 2697.4 1043.9 2711.7 1044.2 C 2736.2 1044.9 2771.1 1044.5 2795 1050.9 C 2802.6 1053.2 2809.3 1056.3 2815.4 1061.7 C 2828.4 1073.2 2829.1 1095.1 2829.1 1111 C 2829 1128.6 2827.4 1148.9 2814.7 1162.6 Z M 3117 1018.3 L 3022.6 1018.3 L 3022.6 1176.3 L 2954.9 1176.3 L 2954.9 1018.3 L 2860.5 1018.3 L 2860.5 964.2 L 3117 964.2 L 3117 1018.3 L 3117 1018.3 Z M 3385.6 1176.2 L 3149.8 1176.2 L 3149.8 964.3 L 3384.4 964.3 L 3384.4 1014.2 L 3213.4 1014.2 L 3213.4 1045.1 L 3375.8 1045.1 L 3375.8 1091.5 L 3213.4 1091.5 L 3213.4 1125.5 L 3385.7 1125.5 L 3385.7 1176.2 L 3385.6 1176.2 Z M 3791.9 1176.2 L 3728.3 1176.2 L 3729.9 1017.6 L 3719.1 1017.6 L 3639.4 1176.2 L 3585.7 1176.2 L 3506 1017.6 L 3494.5 1017.6 L 3496.1 1176.2 L 3432.5 1176.2 L 3432.5 964.3 L 3549.4 964.3 L 3612.4 1101.9 L 3675.7 964.3 L 3792 964.3 L 3792 1176.2 L 3791.9 1176.2 Z" style="fill: rgb(255, 255, 255);"/>
</svg>
